X: 142105
M: C
L: 1/8
K: D
(A>G) |\
d>fa>f b>ge>c | d2d2d2 :|
(3(ABc) |\
d.fd>f c>ec>e | B>cd>e d>cB>A |\
d>fa>f b>ge>c | d2d2d2 |]


